X:9213
T:Lament for the death of Owen Roe o'Neill
R:Other
O:Ireland
M:4/4
C:Turlough O'Carolan
K:Gm
GA Bc d3 c  | Bc d=e f2_ef | \
gd dc B2 AG | A2 GF E2 z2 |\
GA Bc d2 cB | cB AG F2 Ac |
B2 AG AG Ac | B2 A>G G2 z2 || \
GA Bc d3  c | B cd=e f2 _ef |
g2 d2 ed cB | A2 G>F Fe dc|\
d>e dB cc cA | B>c BG AG FD | \
B3G A3F | G>F D^F G2 z2||


